Numix/24x24/categories/applications-roleplaying.svg

<?xml version="1.0" encoding="UTF-8" standalone="no"?>
<svg
   xmlns:dc="http://purl.org/dc/elements/1.1/"
   xmlns:cc="http://creativecommons.org/ns#"
   xmlns:rdf="http://www.w3.org/1999/02/22-rdf-syntax-ns#"
   xmlns:svg="http://www.w3.org/2000/svg"
   xmlns="http://www.w3.org/2000/svg"
   xmlns:sodipodi="http://sodipodi.sourceforge.net/DTD/sodipodi-0.dtd"
   xmlns:inkscape="http://www.inkscape.org/namespaces/inkscape"
   width="24"
   height="24"
   viewBox="0 0 24 24"
   id="svg2"
   version="1.1"
   inkscape:version="0.91 r"
   sodipodi:docname="applications-roleplaying.svg">
  <metadata
     id="metadata24">
    <rdf:RDF>
      <cc:Work
         rdf:about="">
        <dc:format>image/svg+xml</dc:format>
        <dc:type
           rdf:resource="http://purl.org/dc/dcmitype/StillImage" />
        <dc:title />
      </cc:Work>
    </rdf:RDF>
  </metadata>
  <defs
     id="defs22" />
  <sodipodi:namedview
     pagecolor="#ffffff"
     bordercolor="#666666"
     borderopacity="1"
     objecttolerance="10"
     gridtolerance="10"
     guidetolerance="10"
     inkscape:pageopacity="0"
     inkscape:pageshadow="2"
     inkscape:window-width="1680"
     inkscape:window-height="1026"
     id="namedview20"
     showgrid="false"
     inkscape:zoom="10.727273"
     inkscape:cx="16.64804"
     inkscape:cy="11"
     inkscape:window-x="0"
     inkscape:window-y="24"
     inkscape:window-maximized="1"
     inkscape:current-layer="svg2" />
  <g
     style="fill:#549ca4;stroke:#549ca4;stroke-width:4.54500008"
     id="g4"
     transform="translate(1.1137614,1.1157142)">
    <path
       d="m 69.173955,106.24127 c 1.607628,7.53289 2.526273,13.22849 1.194238,20.80731 -10.288822,8.35967 -36.607996,12.12611 -36.562064,20.76137 l -3.536782,25.99765 c 0,8.58933 24.527816,15.57103 54.797163,15.57103 30.26935,0 54.79716,-6.9817 54.79716,-15.57103 l -3.53678,-25.99765 c -0.0459,-7.39509 -26.5029,-12.12611 -36.653928,-20.76137 -0.872712,-7.02764 -0.183729,-13.82561 1.286098,-20.80731 z"
       transform="scale(0.08504,0.08504)"
       id="path6"
       inkscape:connector-curvature="0" />
    <path
       d="m 84.836849,57.553098 c -12.585434,0 -22.736459,9.783567 -22.736459,21.863746 0.09186,4.455428 0.459322,9.783568 3.031527,21.863746 1.515764,4.68509 15.019843,18.0973 15.111708,19.659 2.985595,1.51576 7.578819,1.51576 10.610347,0 0,-1.5617 12.126108,-14.97391 13.687808,-19.659 2.8478,-12.585433 2.8478,-17.178657 3.03153,-21.863746 0,-12.080179 -10.19696,-21.863746 -22.736461,-21.863746 z"
       transform="scale(0.08504,0.08504)"
       id="path8"
       inkscape:connector-curvature="0" />
    <g
       style="stroke-linejoin:round"
       id="g10">
      <path
         d="M 132.74418,71.194973 C 125.07349,66.647681 112.62585,34.954435 114.55501,48.458514 l 4.54729,31.785111 z"
         transform="scale(0.08504,0.08504)"
         id="path12"
         inkscape:connector-curvature="0" />
      <path
         d="m 177.98743,71.194973 c 7.71662,-4.547292 20.11832,-36.240538 18.18917,-22.736459 l -4.54729,31.785111 z"
         transform="scale(0.08504,0.08504)"
         id="path14"
         inkscape:connector-curvature="0" />
    </g>
    <path
       d="m 134.81113,107.57331 c 2.11288,9.87543 3.26119,17.36238 1.56169,27.23782 -13.22848,10.9778 -47.034612,15.93848 -46.988679,27.28375 l -4.547292,34.08172 c 0,11.29933 31.509521,20.43985 70.414121,20.43985 38.95054,0 70.50599,-9.14052 70.50599,-20.43985 l -4.59322,-34.08172 c -0.0459,-9.73764 -34.08172,-15.89256 -47.12648,-27.28375 -1.14831,-9.18645 -0.22966,-18.05137 1.69949,-27.23782 z"
       transform="scale(0.08504,0.08504)"
       id="path16"
       inkscape:connector-curvature="0" />
    <path
       d="m 155.25097,39.36393 c -18.78628,0 -34.08172,14.238995 -34.08172,31.831043 0.18373,6.476446 0.73492,14.238995 4.54729,31.785107 2.29661,6.84391 22.55273,25.03307 22.73646,27.28375 4.4095,2.29662 11.34527,2.29662 15.89256,0 0,-2.25068 18.18916,-20.43984 20.48578,-27.28375 4.31763,-18.281028 4.31763,-24.987135 4.54729,-31.785107 0,-17.592048 -15.29544,-31.831043 -34.12766,-31.831043 z"
       transform="scale(0.08504,0.08504)"
       id="path18"
       inkscape:connector-curvature="0" />
  </g>
</svg>

<svg width="24" xmlns="http://www.w3.org/2000/svg" height="24" viewBox="0 0 24 24" xmlns:xlink="http://www.w3.org/1999/xlink">
<g style="stroke:#549ca4;stroke-width:4.545;fill:#549ca4">
<path d="M 69.177782 106.22979 C 70.777755 113.80861 71.704056 119.492724 70.35671 127.02944 C 60.083199 135.408246 33.767852 139.155551 33.809957 147.829089 L 30.273174 173.807599 C 30.273174 182.396928 54.820129 189.386284 85.093304 189.386284 C 115.324373 189.386284 139.871328 182.396928 139.871328 173.807599 L 136.334546 147.829089 C 136.292441 140.376583 109.808677 135.702978 99.661479 127.02944 C 98.777284 120.040084 99.493061 113.219146 100.966721 106.22979 Z " transform="scale(.09277)"/>
<path d="M 84.798572 57.556925 C 72.251415 57.556925 62.062113 67.325182 62.062113 79.409189 C 62.188426 83.872272 62.567367 89.177445 65.135745 101.261452 C 66.651509 105.935058 80.167071 119.366411 80.25128 120.924279 C 83.198599 122.482148 87.8301 122.482148 90.861628 120.924279 C 90.861628 119.366411 102.987739 105.935058 104.545608 101.261452 C 107.408717 88.714295 107.408717 84.124899 107.535031 79.409189 C 107.535031 67.325182 97.387833 57.556925 84.798572 57.556925 Z " transform="scale(.09277)"/>
<g style="stroke-linejoin:round">
<path d="M 132.755659 71.198801 C 125.09263 66.651509 112.629682 34.94678 114.566492 48.462342 L 119.113783 80.25128 Z " transform="scale(.09277)"/>
<path d="M 178.018054 71.198801 C 185.681083 66.651509 198.101927 34.94678 196.165117 48.462342 L 191.617825 80.25128 Z " transform="scale(.09277)"/>
</g>
<path d="M 134.818782 107.535031 C 136.92401 117.429601 138.060833 124.924212 136.37665 134.818782 C 123.155821 145.808071 89.303759 150.734303 89.387968 162.060428 L 84.798572 196.165117 C 84.798572 207.491242 116.376987 216.62793 155.281595 216.62793 C 194.186203 216.62793 225.722514 207.491242 225.722514 196.165117 L 221.175222 162.060428 C 221.133118 152.376381 187.070534 146.187012 174.018122 134.818782 C 172.881299 125.639989 173.807599 116.755928 175.744409 107.535031 Z " transform="scale(.09277)"/>
<path d="M 155.281595 39.367758 C 136.46086 39.367758 121.176906 53.599097 121.176906 71.198801 C 121.345325 77.682902 121.892684 85.43014 125.724198 102.987739 C 127.997844 109.808677 148.250135 127.997844 148.460658 130.27149 C 152.881636 132.545136 159.828887 132.545136 164.376179 130.27149 C 164.376179 127.997844 182.565346 109.808677 184.796888 102.987739 C 189.133657 84.714363 189.133657 78.019739 189.386284 71.198801 C 189.386284 53.599097 174.102331 39.367758 155.281595 39.367758 Z " transform="scale(.09277)"/>
</g>
</svg>
